public/images/facilities/airport_shenzhen.svg

<svg xmlns="http://www.w3.org/2000/svg" width="30" height="30" fill="none" viewBox="0 0 120 120">
  <rect width="120" height="120" fill="#666" rx="12"/>
  <path fill="#fff" d="m40 102 20-12 20 12v8l-20-6-20 6zM10 67l50-27 50 27v11L60 63 10 78z"/>
  <rect width="16" height="87" x="52" y="10" fill="#fff" rx="8"/>
</svg>

<svg xmlns="http://www.w3.org/2000/svg" xmlns:xlink="http://www.w3.org/1999/xlink" width="30" height="30" viewBox="0 0 120 120" fill="none"><rect  x="0" y="0" width="120" height="120" rx="12"    fill="#666666" ></rect><path d="M40 102L60 90L80 102L80 110L60 104L40 110L40 102Z"   fill="#FFFFFF" ></path><path d="M10 67L60 40L110 67L110 78L60 63L10 78L10 67Z"   fill="#FFFFFF" ></path><rect  x="52" y="10" width="16" height="87" rx="8"    fill="#FFFFFF" ></rect></svg>
